X:1
T:Title
%%score { 1 | 2 }
L:1/8
M:4/4
K:Eb
V:1 treble nm="Grand Piano"
V:2 bass 
V:1
 z4 z2[Q:1/4=100] [EG][FA] | [GB][GB][GB][Ac] [GB][FA][EG][FA] | [GB]4 [EG]2 [GB][GB] | %3
 [Ge][Ge][Ge][Ge] GGFE | [DB]6 [EB][EB] | [Ge][Ge][Be][Be] fedc |[M:3/4] [Ac]4 [GB]2 | %7
[M:1/4] [EG][FA] |[M:4/4] [GB][GB]Bc GG[DF][DF] |[M:3/4] E6 |[M:1/4] [FA][FA] | %11
[M:4/4] cccc c[ce][Bd][Ac] | [Ac]4 [GB]2 [GB][GB] | [Ge]<[Ge] [GB][GB] G<G FE | [DB]6 [GB][GB] | %15
 [Ge][Ge][Be][Be] fedc |[M:3/4] [Ac]4 [GB]2 |[M:1/4] [EG][FA] |[M:4/4] [GB][GB]Bc GG[DF][DF] | %19
[M:7/4] E6 z2 z2 z4 |] %20
V:2
 z4 z2 [E,B,][E,B,] | [E,E][E,E][E,E][E,E] [E,E][E,B,][E,B,][E,B,] | [E,E]4 [E,B,]2 [E,E][E,E] | %3
 [E,B,][E,B,][E,B,][E,B,] [E,B,E][E,B,E][D,B,][C,=A,C] | [B,,B,]6 [E,G,][E,G,] | %5
 [E,B,][E,B,][K:treble][G,E][G,E] [A,CA][A,CA][A,DA][A,EA] |[M:3/4][K:bass] [E,E]4 [E,E]2 | %7
[M:1/4] [E,B,][E,B,] |[M:4/4] [E,E][E,E][G,E][A,E] [B,E][B,E][B,,B,][B,,A,] |[M:3/4] [E,G,]6 | %10
[M:1/4] [E,E][E,E] |[M:4/4][K:treble] [A,EA][A,EA][A,EA][A,EA] [A,EA][K:bass][A,E][A,E][A,E] | %12
 [E,E]4 [E,E]2 [E,E][E,E] | [E,B,]<[E,B,] [E,E][E,E] [E,B,E]<[E,B,E] [D,B,][C,=A,C] | %14
 [B,,B,]6 [E,E][E,E] | [E,B,][E,B,][G,B,][G,B,][K:treble] [A,CA][A,CA][A,DA][A,EA] | %16
[M:3/4][K:bass] [E,E]4 [E,E]2 |[M:1/4] [E,B,][E,B,] | %18
[M:4/4] [E,E][E,E][G,E][A,E] [B,E][B,E][B,,B,][B,,A,] |[M:7/4] [E,G,]6 z2 z2 z4 |] %20

